icons/desktop/16/svg/organizational-unit-16.svg

<svg width="16" height="16" viewBox="0 0 16 16" fill="none" xmlns="http://www.w3.org/2000/svg">
<path d="M10.25 9.49994C10.6642 9.49994 11 9.83573 11 10.2499C11 10.6642 10.6642 10.9999 10.25 10.9999H7.75C7.33579 10.9999 7 10.6642 7 10.2499C7 9.83573 7.33579 9.49994 7.75 9.49994H10.25Z" fill="black"/>
<path d="M10.25 6.49994C10.6642 6.49994 11 6.83573 11 7.24994C11 7.66415 10.6642 7.99994 10.25 7.99994H7.75C7.33579 7.99994 7 7.66415 7 7.24994C7 6.83573 7.33579 6.49994 7.75 6.49994H10.25Z" fill="black"/>
<path fill-rule="evenodd" clip-rule="evenodd" d="M11.5664 2.00775C12.1853 1.95488 12.8106 2.1659 13.2715 2.58881C13.7353 3.01478 14.0009 3.62099 14.001 4.25287V13.4999H14.25C14.6642 13.4999 15 13.8357 15 14.2499C15 14.6642 14.6642 14.9999 14.25 14.9999H1.75C1.33579 14.9999 1 14.6642 1 14.2499C1 13.8357 1.33579 13.4999 1.75 13.4999H2V9.49994C2 8.67194 2.672 7.99994 3.5 7.99994H4V5.89057C4.00017 4.74977 4.72491 3.71057 5.80371 3.30658C6.79464 2.93561 7.81685 2.63597 8.84277 2.41498C9.73777 2.22298 10.6544 2.08475 11.5664 2.00775ZM11.6924 3.50189C10.8435 3.57389 9.99013 3.7018 9.1582 3.88178C8.20324 4.08677 7.25205 4.36589 6.33008 4.71088C5.82621 4.89983 5.50017 5.36273 5.5 5.89057V13.4999H12.5V4.25287C12.5 4.03695 12.4128 3.83925 12.2549 3.69428C12.1 3.55236 11.9002 3.48301 11.6924 3.50189Z" fill="black"/>
</svg>

<!-- This Source Code Form is subject to the terms of the Mozilla Public
   - License, v. 2.0. If a copy of the MPL was not distributed with this
   - file, You can obtain one at http://mozilla.org/MPL/2.0/. -->
<svg xmlns="http://www.w3.org/2000/svg" width="16" height="16" fill="context-fill" fill-opacity="context-fill-opacity" viewBox="0 0 16 16">
    <path d="M10.25 9.5a.75.75 0 0 1 0 1.5h-2.5a.75.75 0 1 1 0-1.5zM10.25 6.5a.75.75 0 0 1 0 1.5h-2.5a.75.75 0 0 1 0-1.5z" />
    <path fill-rule="evenodd" d="M11.566 2.008a2.25 2.25 0 0 1 1.705.58c.464.427.73 1.033.73 1.665V13.5h.249a.75.75 0 0 1 0 1.5H1.75a.75.75 0 1 1 0-1.5H2v-4A1.5 1.5 0 0 1 3.5 8H4V5.89c0-1.14.725-2.18 1.804-2.583a21.8 21.8 0 0 1 5.762-1.3m.126 1.494A20.185 20.185 0 0 0 6.33 4.71c-.504.189-.83.652-.83 1.18V13.5h7V4.253a.75.75 0 0 0-.808-.751" clip-rule="evenodd" />
</svg>
